X: 1084
T: Amber Spring
R: slip jig
M: 9/8
K: Bminor
|:BAB def BAB|gf/e/d cAc dcA|F2 d cd(f f)dc|B3 ABe/f/ gfd|
BAB def BAB|gf/e/d cAc dcA|dFd Adf dA2|1 BAF EFA BBB:|2 BAF EDE FBc||
|:FDF cdA dAd|B2 f g2f gfd|c2 A dcA f2a|f/e/d(A A)fe dcd|
FDF cdA dAd|B2 f g2f gfd|c2 A dcA f2a|1 f/e/d(A A)fe dcd:|2 f/e/d(A A)fe dcA||

